assets/Railway car/Flat/railway_car_flat.svg

<svg width="32" height="32" viewBox="0 0 32 32" fill="none" xmlns="http://www.w3.org/2000/svg">
<path d="M22.0059 30.0059C23.1137 30.0059 24.0117 29.1078 24.0117 28C24.0117 26.8922 23.1137 25.9941 22.0059 25.9941C20.8981 25.9941 20 26.8922 20 28C20 29.1078 20.8981 30.0059 22.0059 30.0059ZM10 30C11.1046 30 12 29.1046 12 28C12 26.8954 11.1046 26 10 26C8.89543 26 8 26.8954 8 28C8 29.1046 8.89543 30 10 30Z" fill="#321B41"/>
<path d="M5.00293 24.4531C5.00293 24.177 5.22679 23.9531 5.50293 23.9531H26.5C26.7761 23.9531 27 24.177 27 24.4531V27.5C27 27.7761 26.7761 28 26.5 28H5.50293C5.22679 28 5.00293 27.7761 5.00293 27.5V24.4531Z" fill="#533566"/>
<path d="M14.2646 2.72685C14.3452 2.67502 14.4391 2.64746 14.5349 2.64746H17.4926C17.5909 2.64746 17.687 2.67645 17.769 2.73081L22.0985 5.603C22.2453 5.70044 22.3301 5.86802 22.3214 6.04407C22.3128 6.22012 22.2122 6.37863 22.0565 6.46128L16.9499 9.17222C16.8777 9.21055 16.7972 9.23059 16.7155 9.23059H15.3516C15.2722 9.23059 15.194 9.2117 15.1234 9.17548L9.83821 6.46454C9.67911 6.38293 9.5757 6.22257 9.567 6.04398C9.5583 5.86538 9.64564 5.69573 9.79606 5.59905L14.2646 2.72685ZM14.6818 3.64746L11.0669 5.97092L15.4723 8.23059H16.591L20.8456 5.97192L17.3418 3.64746H14.6818Z" fill="#636363"/>
<path d="M14.9998 2C14.4488 2 14.0021 2.44668 14.0021 2.99768C14.0021 3.54868 14.4488 3.99536 14.9998 3.99536H17.0023C17.5533 3.99536 18 3.54868 18 2.99768C18 2.44668 17.5533 2 17.0023 2H14.9998Z" fill="#212121"/>
<path d="M11.9948 7.9939C11.4425 7.9939 10.9948 8.44161 10.9948 8.9939V11C10.9948 11.5523 11.4425 12 11.9948 12H20C20.5523 12 21 11.5523 21 11V8.9939C21 8.44161 20.5523 7.9939 20 7.9939H11.9948Z" fill="#212121"/>
<path d="M5.29401 10C3.47477 10 1.99998 11.4748 1.99998 13.294C1.99998 15.1133 3.47477 16.5881 5.29401 16.5881H26.7099C28.5291 16.5881 30.0039 15.1133 30.0039 13.294C30.0039 11.4748 28.5291 10 26.7099 10H5.29401ZM1.99902 25V23.9L16 23L30.0039 23.9V25C30.0039 25.5523 29.5562 26 29.0039 26H2.99902C2.44674 26 1.99902 25.5523 1.99902 25Z" fill="#00F397"/>
<path d="M1.99902 12.9697H30.0039V24.0001H1.99902V12.9697Z" fill="#FCD53F"/>
<path d="M22.75 14C22.3358 14 22 14.3358 22 14.75V24H28V14.75C28 14.3358 27.6642 14 27.25 14H22.75Z" fill="#FF6723"/>
<path d="M5.00604 16.75C5.00604 16.3358 5.34183 16 5.75604 16H8.24998C8.66419 16 8.99998 16.3358 8.99998 16.75V19.25C8.99998 19.6642 8.66419 20 8.24998 20H5.75604C5.34183 20 5.00604 19.6642 5.00604 19.25V16.75ZM14 16.75C14 16.3358 14.3358 16 14.75 16H17.2439C17.6581 16 17.9939 16.3358 17.9939 16.75V19.25C17.9939 19.6642 17.6581 20 17.2439 20H14.75C14.3358 20 14 19.6642 14 19.25V16.75ZM23.7439 16C23.3297 16 22.9939 16.3358 22.9939 16.75V19.25C22.9939 19.6642 23.3297 20 23.7439 20H26.2378C26.6521 20 26.9878 19.6642 26.9878 19.25V16.75C26.9878 16.3358 26.6521 16 26.2378 16H23.7439Z" fill="#5092FF"/>
</svg>

<svg xmlns="http://www.w3.org/2000/svg" width="32" height="32" fill="none"><path fill="#321B41" d="M22.006 30.006a2.006 2.006 0 1 0 0-4.012 2.006 2.006 0 0 0 0 4.012ZM10 30a2 2 0 1 0 0-4 2 2 0 0 0 0 4Z"/><path fill="#533566" d="M5.003 24.453a.5.5 0 0 1 .5-.5H26.5a.5.5 0 0 1 .5.5V27.5a.5.5 0 0 1-.5.5H5.503a.5.5 0 0 1-.5-.5v-3.047Z"/><path fill="#636363" d="M14.265 2.727a.5.5 0 0 1 .27-.08h2.958a.5.5 0 0 1 .276.084l4.33 2.872a.5.5 0 0 1-.043.858L16.95 9.172a.5.5 0 0 1-.235.059h-1.363a.5.5 0 0 1-.229-.056l-5.285-2.71a.5.5 0 0 1-.042-.866l4.469-2.872Zm.417.92-3.615 2.324 4.405 2.26h1.119l4.255-2.26-3.504-2.324h-2.66Z"/><path fill="#212121" d="M15 2a.998.998 0 0 0 0 1.995h2.002a.998.998 0 0 0 0-1.995H15ZM11.995 7.994a1 1 0 0 0-1 1V11a1 1 0 0 0 1 1H20a1 1 0 0 0 1-1V8.994a1 1 0 0 0-1-1h-8.005Z"/><path fill="#00F397" d="M5.294 10a3.294 3.294 0 0 0 0 6.588H26.71a3.294 3.294 0 0 0 0-6.588H5.294ZM1.999 25v-1.1L16 23l14.004.9V25a1 1 0 0 1-1 1H2.999a1 1 0 0 1-1-1Z"/><path fill="#FCD53F" d="M1.999 12.97h28.005V24H1.999V12.97Z"/><path fill="#FF6723" d="M22.75 14a.75.75 0 0 0-.75.75V24h6v-9.25a.75.75 0 0 0-.75-.75h-4.5Z"/><path fill="#5092FF" d="M5.006 16.75a.75.75 0 0 1 .75-.75H8.25a.75.75 0 0 1 .75.75v2.5a.75.75 0 0 1-.75.75H5.756a.75.75 0 0 1-.75-.75v-2.5Zm8.994 0a.75.75 0 0 1 .75-.75h2.494a.75.75 0 0 1 .75.75v2.5a.75.75 0 0 1-.75.75H14.75a.75.75 0 0 1-.75-.75v-2.5Zm9.744-.75a.75.75 0 0 0-.75.75v2.5c0 .414.336.75.75.75h2.494a.75.75 0 0 0 .75-.75v-2.5a.75.75 0 0 0-.75-.75h-2.494Z"/></svg>
